components/Icon/svg/layers.svg

<svg width="24" height="24" viewBox="0 0 24 24" fill="none" xmlns="http://www.w3.org/2000/svg">
<g clip-path="url(#clip0_69:409)">
<path d="M12 14.4C11.9208 14.4 11.8416 14.3844 11.7672 14.3532L0.3672 9.55318C0.1452 9.45958 0 9.24118 0 8.99998C0 8.75878 0.1452 8.54038 0.3672 8.44678L11.7672 3.64678C11.916 3.58438 12.084 3.58438 12.2328 3.64678L23.6328 8.44678C23.8548 8.54038 24 8.75878 24 8.99998C24 9.24118 23.8548 9.45958 23.6328 9.55318L12.2328 14.3532C12.1584 14.3844 12.0792 14.4 12 14.4ZM2.1456 8.99998L12 13.1484L21.8544 8.99998L12 4.85158L2.1456 8.99998Z" fill="white"/>
<path d="M12.0002 18C11.921 18 11.8418 17.9844 11.7674 17.9532L0.367371 13.1532C0.0625708 13.0248 -0.0814292 12.6732 0.0469708 12.3672C0.175371 12.0612 0.526971 11.9184 0.832971 12.0468L12.0002 16.7484L23.1674 12.0468C23.4722 11.9184 23.825 12.0612 23.9534 12.3672C24.0818 12.6732 23.939 13.0248 23.633 13.1532L12.233 17.9532C12.1586 17.9844 12.0794 18 12.0002 18Z" fill="white"/>
<path d="M12.0002 21.5999C11.921 21.5999 11.8418 21.5843 11.7674 21.5531L0.367371 16.7531C0.0625708 16.6247 -0.0814292 16.2731 0.0469708 15.9671C0.175371 15.6611 0.526971 15.5183 0.832971 15.6467L12.0002 20.3483L23.1674 15.6467C23.4722 15.5183 23.825 15.6611 23.9534 15.9671C24.0818 16.2731 23.939 16.6247 23.633 16.7531L12.233 21.5531C12.1586 21.5843 12.0794 21.5999 12.0002 21.5999Z" fill="white"/>
</g>
<defs>
<clipPath id="clip0_69:409">
<rect width="24" height="24" fill="white"/>
</clipPath>
</defs>
</svg>

<svg xmlns="http://www.w3.org/2000/svg" width="24" height="24" viewBox="0 0 24 24">
  <g fill="currentColor">
    <path d="M12 14.4a.602.602 0 0 1-.233-.047l-11.4-4.8a.601.601 0 0 1 0-1.106l11.4-4.8a.602.602 0 0 1 .466 0l11.4 4.8a.601.601 0 0 1 0 1.106l-11.4 4.8A.602.602 0 0 1 12 14.4ZM2.146 9 12 13.148 21.854 9 12 4.852 2.146 9Z"/>
    <path d="M12 18a.602.602 0 0 1-.233-.047l-11.4-4.8a.6.6 0 0 1 .466-1.106L12 16.748l11.167-4.701a.6.6 0 1 1 .466 1.106l-11.4 4.8A.602.602 0 0 1 12 18Z"/>
    <path d="M12 21.6a.602.602 0 0 1-.233-.047l-11.4-4.8a.6.6 0 0 1 .466-1.106L12 20.348l11.167-4.701a.6.6 0 1 1 .466 1.106l-11.4 4.8A.602.602 0 0 1 12 21.6Z"/>
  </g>
</svg>
